packages/tokens/icons/thoughtLeadership/size24Px.svg

<svg viewBox="0 0 24 24" fill="none" xmlns="http://www.w3.org/2000/svg" width="1em" height="1em"><path d="M15.5 21.5001V21.5001C15.5 20.3955 14.6046 19.5 13.5 19.5L10.5 19.5C9.39542 19.5001 8.5 20.3955 8.5 21.5001V21.5001" stroke="currentColor" stroke-linecap="round"/><circle cx="12" cy="15.5" r="2" stroke="currentColor"/><path d="M7 19.5H5.5C4.39543 19.5 3.5 20.3954 3.5 21.5V21.5" stroke="currentColor" stroke-linecap="round"/><circle cx="6" cy="16" r="1.5" stroke="currentColor"/><path d="M17 19.5H18.5C19.6046 19.5 20.5 20.3954 20.5 21.5V21.5" stroke="currentColor" stroke-linecap="round"/><circle cx="2" cy="2" r="1.5" transform="matrix(-1 0 0 1 20 14)" stroke="currentColor"/><path d="M14.5 7.0375C14.5 7.77881 14.1875 8.44413 13.6894 8.90793C13.3659 9.2092 12.9929 9.60004 12.8036 10.1199L12.6486 10.5459C12.5493 10.8185 12.2901 11 12 11C11.7099 11 11.4507 10.8185 11.3514 10.5459L11.1964 10.1199C11.0071 9.60004 10.6341 9.2092 10.3106 8.90793C9.81246 8.44413 9.5 7.77881 9.5 7.0375C9.5 5.6302 10.6251 4.5 12 4.5C13.3749 4.5 14.5 5.6302 14.5 7.0375Z" stroke="currentColor"/><path d="M7.41669 7.5L7.00002 7.5" stroke="currentColor" stroke-linecap="round"/><path d="M8.25 4.1665L7.83334 3.74984" stroke="currentColor" stroke-linecap="round"/><path d="M17 7.5L16.5833 7.5" stroke="currentColor" stroke-linecap="round"/><path d="M16.1666 3.74984L15.75 4.1665" stroke="currentColor" stroke-linecap="round"/><path d="M12 2.9165L12 2.49984" stroke="currentColor" stroke-linecap="round"/></svg>

<svg xmlns="http://www.w3.org/2000/svg" fill="none" viewBox="0 0 24 24" width="1em" height="1em"><path stroke="currentColor" stroke-linecap="round" d="M15.5 21.5v0a2 2 0 0 0-2-2h-3a2 2 0 0 0-2 2v0"/><circle cx="12" cy="15.5" r="2" stroke="currentColor"/><path stroke="currentColor" stroke-linecap="round" d="M7 19.5H5.5a2 2 0 0 0-2 2v0"/><circle cx="6" cy="16" r="1.5" stroke="currentColor"/><path stroke="currentColor" stroke-linecap="round" d="M17 19.5h1.5a2 2 0 0 1 2 2v0"/><circle cx="2" cy="2" r="1.5" stroke="currentColor" transform="matrix(-1 0 0 1 20 14)"/><path stroke="currentColor" d="M14.5 7.037c0 .742-.313 1.407-.81 1.87-.324.302-.697.693-.886 1.213l-.155.426a.69.69 0 0 1-1.298 0l-.155-.426c-.189-.52-.562-.91-.885-1.212a2.547 2.547 0 0 1-.811-1.87C9.5 5.63 10.625 4.5 12 4.5s2.5 1.13 2.5 2.537Z"/><path stroke="currentColor" stroke-linecap="round" d="M7.417 7.5H7m1.25-3.333-.417-.417M17 7.5h-.417m-.416-3.75-.417.417M12 2.917V2.5"/></svg>
